X: 126005
T: HORNPIPE
N: AKA Morpeth Rant
R: Hornpipe.
%R: hornpipe, reel
B: James Kerr "Merry Melodies" v.1 p.26 s.0 #5
Z: 2017 John Chambers <jc:trillian.mit.edu>
M: 2/4
L: 1/16
K: D
A2 |\
d2(AG) FDFA | BGBd cAce |\
f2(fd) gfed | c2e2e2A2 |\
d2(AG) FDFA | BGBd cABc |\
dbag   fedc | d2d2d2 :|
|: A2 |\
dfaf dfaf | gfga g2g2 |\
gfed cdeg | fefg f2f2 |\
dfaf dfaf | gfga g2g2 |\
gfed cbag | f2d2d2 :|

%%sep 1 1 500
%%sep 1 1 500

